public/icon-chat-bubble.svg

<svg width="48" height="48" viewBox="0 0 48 48" fill="none" xmlns="http://www.w3.org/2000/svg">
<path d="M19.4373 13.5627L13.8067 19.1933C13.085 19.915 11.915 19.915 11.1933 19.1933C10.5175 18.5175 9.43781 18.4685 8.70357 19.0804L8.61172 19.1569C7.73723 19.8856 7.65635 21.2001 8.4349 22.0306L13.0873 26.9931C13.86 27.8174 15.1617 27.8383 15.9606 27.0394L24.2202 18.7798C24.9467 18.0533 25.0045 16.8944 24.3539 16.0992L22.3994 13.7104C21.6502 12.7946 20.274 12.726 19.4373 13.5627Z" fill="#FFE493"/>
<path d="M28.6851 27.1483L28.0522 26.5288C26.9528 25.4527 27.0215 23.663 28.2 22.6742L28.2885 22.6C29.4823 21.5984 29.4823 19.7616 28.2885 18.76C27.0946 17.7584 27.0946 15.9216 28.2885 14.92L28.5997 14.6588C29.7217 13.7175 31.3747 13.7809 32.4213 14.8053L32.4632 14.8463C33.5951 15.9542 35.4049 15.9542 36.5368 14.8463C37.6072 13.7986 39.2977 13.7338 40.4452 14.6965L40.8165 15.0081C41.9862 15.9894 42.0543 17.7657 40.9632 18.8337C39.928 19.8469 39.928 21.5131 40.9632 22.5263L41.0385 22.6C42.1149 23.6537 42.1149 25.3863 41.0385 26.44L40.3149 27.1483C39.2375 28.2028 37.5399 28.2796 36.3717 27.3268C35.2822 26.438 33.7178 26.438 32.6283 27.3268C31.4601 28.2796 29.7625 28.2028 28.6851 27.1483Z" fill="#FFE493"/>
<path d="M8.24963 43.5938C8.12915 43.5938 8.0072 43.5703 7.89111 43.5223C7.54102 43.3773 7.3125 43.0353 7.3125 42.6562V37.0312H5.4375C2.43933 37.0312 0 34.5919 0 31.5938V9.84375C0 6.84558 2.43933 4.40625 5.4375 4.40625H42.5625C45.5607 4.40625 48 6.84558 48 9.84375V31.5938C48 34.5919 45.5607 37.0312 42.5625 37.0312H38.4481C37.9307 37.0312 37.5106 36.6116 37.5106 36.0938C37.5106 35.5759 37.9307 35.1562 38.4481 35.1562H42.5625C44.5269 35.1562 46.125 33.5581 46.125 31.5938V9.84375C46.125 7.87939 44.5269 6.28125 42.5625 6.28125H5.4375C3.47314 6.28125 1.875 7.87939 1.875 9.84375V31.5938C1.875 33.5581 3.47314 35.1562 5.4375 35.1562H8.25C8.76782 35.1562 9.1875 35.5759 9.1875 36.0938V40.3931L14.1497 35.4309C14.3254 35.2551 14.5638 35.1562 14.8125 35.1562H30.9485C31.4663 35.1562 31.886 35.5759 31.886 36.0938C31.886 36.6116 31.4663 37.0312 30.9485 37.0312H15.201L8.91284 43.3191C8.7334 43.4985 8.4939 43.5938 8.24963 43.5938Z" fill="black"/>
<path d="M37.8805 28.0203C37.6318 28.0203 37.3934 27.9214 37.2177 27.7456L34.6985 25.2264L32.1797 27.7456C31.8135 28.1115 31.2198 28.1115 30.8536 27.7456L27.6716 24.5636C27.4958 24.3878 27.397 24.1494 27.397 23.9008C27.397 23.6521 27.4958 23.4137 27.6716 23.2379L30.1908 20.7188L27.6716 18.1996C27.4958 18.0238 27.397 17.7854 27.397 17.5367C27.397 17.2881 27.4958 17.0497 27.6716 16.8739L30.8536 13.6919C31.2198 13.3257 31.8135 13.3257 32.1797 13.6919L34.6985 16.2111L37.2177 13.6919C37.3934 13.5161 37.6318 13.4172 37.8805 13.4172C38.1292 13.4172 38.3676 13.5161 38.5437 13.6919L41.7253 16.8739C42.0916 17.2401 42.0916 17.8334 41.7253 18.1996L39.2062 20.7188L41.7253 23.2379C42.0916 23.6038 42.0916 24.1974 41.7253 24.5636L38.5437 27.7456C38.3679 27.9214 38.1292 28.0203 37.8805 28.0203ZM29.6605 23.9008L31.5165 25.7567L34.0356 23.2375C34.4019 22.8717 34.9951 22.8717 35.3617 23.2375L37.8805 25.7567L39.7368 23.9008L37.2177 21.3816C36.8518 21.0154 36.8518 20.4221 37.2177 20.0559L39.7368 17.5367L37.8805 15.6808L35.3617 18.1996C34.9955 18.5658 34.4019 18.5658 34.0356 18.1996L31.5165 15.6808L29.6605 17.5367L32.1793 20.0559C32.3551 20.2317 32.454 20.4701 32.454 20.7188C32.454 20.9674 32.3551 21.2058 32.1793 21.3816L29.6605 23.9008Z" fill="black"/>
<path d="M12.6621 27.7203C12.4219 27.7203 12.182 27.6288 11.9989 27.4457L10.6036 26.0504C10.5905 26.0383 10.5773 26.0262 10.5645 26.0134L6.27466 21.7233C5.90845 21.3574 5.90845 20.7638 6.27466 20.3976L9.4563 17.2156C9.82251 16.8493 10.4161 16.8493 10.7823 17.2156L12.661 19.0942L17.7634 13.9918C18.1296 13.626 18.7229 13.6256 19.0891 13.9918L22.2711 17.1738C22.4469 17.3496 22.5458 17.588 22.5458 17.8367C22.5458 18.0853 22.4469 18.3237 22.2711 18.4995L13.325 27.4457C13.1418 27.6288 12.902 27.7203 12.6621 27.7203ZM11.8524 24.6496C11.8656 24.6614 11.8788 24.6738 11.8916 24.6866L12.6621 25.4568L20.2822 17.8367L18.4263 15.9803L13.3239 21.0827C12.9576 21.4486 12.3644 21.449 11.9978 21.0827L10.1195 19.2041L8.26318 21.0604L11.8524 24.6496Z" fill="black"/>
<path d="M34.6989 37.0283C34.452 37.0283 34.2103 36.9291 34.0349 36.7548C33.8606 36.5793 33.7614 36.3373 33.7614 36.0908C33.7614 35.8444 33.8606 35.6034 34.0349 35.428C34.2103 35.2537 34.452 35.1533 34.6989 35.1533C34.9453 35.1533 35.187 35.2537 35.3613 35.428C35.536 35.6034 35.6364 35.8444 35.6364 36.0908C35.6364 36.3373 35.536 36.5793 35.3613 36.7548C35.187 36.9291 34.9453 37.0283 34.6989 37.0283Z" fill="black"/>
</svg>

<svg width="48" height="48" fill="none" xmlns="http://www.w3.org/2000/svg"><path d="M19.437 13.563l-5.63 5.63a1.848 1.848 0 01-2.614 0 1.848 1.848 0 00-2.49-.113l-.091.077a1.979 1.979 0 00-.177 2.874l4.652 4.962a2 2 0 002.874.046l8.26-8.26a2 2 0 00.133-2.68l-1.955-2.389a2 2 0 00-2.962-.147zM28.685 27.148l-.633-.62a2.603 2.603 0 01.148-3.854l.088-.074a2.506 2.506 0 000-3.84 2.506 2.506 0 010-3.84l.312-.261a2.847 2.847 0 013.821.146l.042.041a2.912 2.912 0 004.074 0 2.912 2.912 0 013.908-.15l.371.312a2.584 2.584 0 01.147 3.826 2.583 2.583 0 000 3.692l.075.074a2.687 2.687 0 010 3.84l-.723.708a2.961 2.961 0 01-3.943.179 2.961 2.961 0 00-3.744 0 2.961 2.961 0 01-3.943-.179z" fill="#FFE493"/><path d="M8.25 43.594a.938.938 0 01-.938-.938v-5.625H5.438A5.444 5.444 0 010 31.594V9.844a5.444 5.444 0 015.438-5.438h37.124A5.444 5.444 0 0148 9.844v21.75a5.444 5.444 0 01-5.438 5.437h-4.114a.938.938 0 010-1.875h4.114a3.566 3.566 0 003.563-3.562V9.844a3.567 3.567 0 00-3.563-3.563H5.438a3.567 3.567 0 00-3.563 3.563v21.75a3.566 3.566 0 003.563 3.562H8.25c.518 0 .938.42.938.938v4.3l4.962-4.963a.937.937 0 01.662-.275h16.136a.937.937 0 110 1.875H15.201L8.913 43.32a.937.937 0 01-.663.275z" fill="#000"/><path d="M37.88 28.02a.937.937 0 01-.662-.274l-2.52-2.52-2.518 2.52a.938.938 0 01-1.326 0l-3.182-3.182a.937.937 0 010-1.326l2.519-2.52-2.52-2.518a.937.937 0 010-1.326l3.183-3.182a.938.938 0 011.326 0l2.519 2.52 2.519-2.52a.937.937 0 011.326 0l3.181 3.182a.937.937 0 010 1.326l-2.519 2.519 2.52 2.519a.937.937 0 010 1.326l-3.182 3.182a.938.938 0 01-.663.274zm-8.22-4.12l1.857 1.857 2.519-2.52a.938.938 0 011.326 0l2.518 2.52 1.857-1.856-2.52-2.52a.938.938 0 010-1.325l2.52-2.52-1.857-1.855-2.518 2.519a.938.938 0 01-1.326 0l-2.52-2.52-1.855 1.857 2.518 2.519a.938.938 0 010 1.326L29.66 23.9zM12.662 27.72a.935.935 0 01-.663-.274l-1.395-1.396-.04-.037-4.29-4.29a.937.937 0 010-1.325l3.182-3.182a.937.937 0 011.326 0l1.879 1.878 5.102-5.102a.938.938 0 011.326 0l3.182 3.182a.938.938 0 010 1.326l-8.946 8.946a.935.935 0 01-.663.274zm-.81-3.07a.967.967 0 01.04.037l.77.77 7.62-7.62-1.856-1.857-5.102 5.103a.938.938 0 01-1.326 0l-1.878-1.879-1.857 1.856 3.59 3.59zM34.699 37.028a.948.948 0 01-.664-.273.949.949 0 01-.274-.664c0-.247.1-.488.274-.663a.949.949 0 01.664-.275c.246 0 .488.1.662.275a.946.946 0 01.275.663c0 .246-.1.488-.275.664a.943.943 0 01-.662.273z" fill="#000"/></svg>
